src/img/fb.svg

<svg width="24" height="24" viewBox="0 0 24 24" fill="none" xmlns="http://www.w3.org/2000/svg">
<path d="M20.4844 0H3.51562C1.57727 0 0 1.57727 0 3.51562V20.4844C0 22.4227 1.57727 24 3.51562 24H10.5938V15.5156H7.78125V11.2969H10.5938V8.4375C10.5938 6.11115 12.4861 4.21875 14.8125 4.21875H19.0781V8.4375H14.8125V11.2969H19.0781L18.375 15.5156H14.8125V24H20.4844C22.4227 24 24 22.4227 24 20.4844V3.51562C24 1.57727 22.4227 0 20.4844 0Z" fill="black"/>
</svg>

<svg xmlns="http://www.w3.org/2000/svg" fill="none" viewBox="0 0 24 24">
  <path fill="#000" d="M20.484 0H3.516A3.52 3.52 0 000 3.516v16.968A3.52 3.52 0 003.516 24h7.078v-8.484H7.78v-4.22h2.813V8.439a4.223 4.223 0 014.219-4.22h4.265v4.22h-4.265v2.859h4.265l-.703 4.219h-3.563V24h5.672A3.52 3.52 0 0024 20.484V3.516A3.52 3.52 0 0020.484 0z"/>
</svg>
